X: 42140
T: Wastview
R: waltz
M: 3/4
K: Eminor
GF|E4 F2|G4 FE|D4 E2|F4 ED|E4 F2|GF GA Bd|A6|
A4 GF|E4 F2|G4 FE|G4 A2|B4 AG|A4 Bc|d2 B2 G2|E6|
E4 ,BD|ED EF GF|GA Be de|B4 AG|F4 ,BD|
ED EF GF|GA Be de|BA GA GF|F4 GF|
E4 F2|G4 FE|G4 A2|B4 AG|A4 Bc|dc ed fe|g6||

